images/footer/social/inst.svg

<svg width="18" height="17" viewBox="0 0 18 17" fill="none" xmlns="http://www.w3.org/2000/svg">
<path d="M9.00031 1.53401C11.4027 1.53401 11.6872 1.54268 12.636 1.58356C13.5132 1.62137 13.9896 1.75976 14.3067 1.87613C14.6975 2.01235 15.051 2.22956 15.3412 2.51178C15.64 2.78587 15.87 3.11973 16.0142 3.48881C16.1374 3.78823 16.284 4.23816 16.324 5.06664C16.3673 5.96268 16.3765 6.23141 16.3765 8.50037C16.3765 10.7693 16.3673 11.038 16.324 11.9341C16.284 12.7626 16.1374 13.2125 16.0142 13.5119C15.7115 14.253 15.0913 14.8387 14.3067 15.1246C13.9896 15.241 13.5132 15.3794 12.636 15.4172C11.6875 15.4581 11.4029 15.4667 9.00031 15.4667C6.59771 15.4667 6.31328 15.4581 5.3646 15.4172C4.48739 15.3794 4.01103 15.2409 3.69396 15.1246C3.30317 14.9884 2.94967 14.7712 2.65946 14.489C2.36064 14.2149 2.13066 13.881 1.98642 13.5119C1.86321 13.2125 1.71664 12.7626 1.67664 11.9341C1.63335 11.0381 1.62417 10.7693 1.62417 8.50037C1.62417 6.23141 1.63335 5.96274 1.67664 5.06664C1.71667 4.23816 1.86321 3.78826 1.98642 3.48881C2.13067 3.11971 2.36068 2.78584 2.65953 2.51174C2.94974 2.22953 3.30324 2.01232 3.69403 1.8761C4.01106 1.75973 4.48746 1.6213 5.36467 1.58352C6.31342 1.54264 6.59796 1.53398 9.00039 1.53398L9.00031 1.53401ZM9.00039 0.00292969C6.55689 0.00292969 6.25039 0.0127114 5.29089 0.0540646C4.33321 0.0953503 3.67921 0.238973 3.10692 0.449045C2.50659 0.662409 1.96275 0.996883 1.51335 1.42914C1.05556 1.85355 0.701313 2.36717 0.475314 2.93418C0.253064 3.47471 0.100993 4.09237 0.0574571 4.99685C0.0134928 5.90304 0.00313568 6.19251 0.00313568 8.50026C0.00313568 10.808 0.0134928 11.0975 0.0574571 12.0037C0.101171 12.9082 0.253243 13.5258 0.475671 14.0663C0.701588 14.6333 1.05574 15.1469 1.51342 15.5714C1.96282 16.0036 2.50666 16.3381 3.10699 16.5514C3.67931 16.7615 4.33331 16.9051 5.29096 16.9464C6.2506 16.9878 6.55699 16.9976 9.00046 16.9976C11.4439 16.9976 11.7505 16.9878 12.71 16.9464C13.6676 16.9051 14.3216 16.7615 14.8939 16.5514C16.1024 16.11 17.0578 15.2077 17.5252 14.0663C17.7477 13.5258 17.8997 12.9081 17.9435 12.0037C17.9872 11.0974 17.9976 10.808 17.9976 8.50026C17.9976 6.19255 17.9872 5.90304 17.9435 4.99685C17.8997 4.09237 17.7477 3.47471 17.5252 2.93421C17.2993 2.36723 16.9452 1.85361 16.4875 1.42918C16.0381 0.99683 15.4942 0.662286 14.8938 0.448876C14.3215 0.238973 13.6675 0.0953503 12.7098 0.0542332C11.7503 0.0127114 11.4438 0.00292969 9.00031 0.00292969H9.00039Z" fill="white"/>
<path d="M9 4.13672C6.44835 4.13672 4.37982 6.09032 4.37982 8.50022C4.37982 10.9101 6.44835 12.8637 9 12.8637C11.5517 12.8637 13.6202 10.9101 13.6202 8.50022C13.6202 6.09032 11.5517 4.13672 9 4.13672ZM9 11.3326C7.34368 11.3326 6.00099 10.0645 6.001 8.5002C6.00101 6.9359 7.34373 5.66779 9.00005 5.6678C10.6564 5.6678 11.9991 6.93592 11.9991 8.50022C11.9991 10.0645 10.6563 11.3326 9 11.3326Z" fill="white"/>
<path d="M13.8027 4.98366C14.399 4.98366 14.8824 4.52714 14.8824 3.964C14.8824 3.40085 14.399 2.94434 13.8027 2.94434C13.2064 2.94434 12.7231 3.40085 12.7231 3.964C12.7231 4.52714 13.2064 4.98366 13.8027 4.98366Z" fill="white"/>
</svg>

<svg width="18" height="17" fill="none" xmlns="http://www.w3.org/2000/svg"><path d="M9 1.534c2.403 0 2.687.009 3.636.05.877.037 1.354.176 1.67.292a2.8 2.8 0 011.035.636c.299.274.529.608.673.977.123.3.27.75.31 1.578.043.896.052 1.164.052 3.433 0 2.27-.009 2.538-.052 3.434-.04.829-.187 1.279-.31 1.578a2.902 2.902 0 01-1.707 1.613c-.317.116-.794.254-1.671.292-.948.041-1.233.05-3.636.05-2.402 0-2.687-.009-3.635-.05-.878-.038-1.354-.176-1.671-.292a2.809 2.809 0 01-1.035-.636 2.624 2.624 0 01-.673-.977c-.123-.3-.27-.75-.31-1.578-.043-.896-.052-1.165-.052-3.434s.01-2.537.053-3.433c.04-.829.186-1.279.31-1.578a2.61 2.61 0 01.673-.977c.29-.282.643-.5 1.034-.636.317-.116.793-.255 1.67-.292.95-.041 1.234-.05 3.636-.05zM9 .003c-2.443 0-2.75.01-3.71.051C4.334.095 3.68.24 3.108.45c-.6.213-1.144.548-1.594.98A4.15 4.15 0 00.475 2.934c-.222.54-.374 1.158-.418 2.063C.013 5.903.003 6.193.003 8.5c0 2.308.01 2.598.054 3.504.044.904.196 1.522.419 2.062.226.567.58 1.08 1.037 1.505.45.433.994.767 1.594.98.572.21 1.226.354 2.184.395.96.042 1.266.052 3.71.052 2.443 0 2.75-.01 3.709-.052.958-.04 1.612-.184 2.184-.395 1.208-.441 2.164-1.343 2.631-2.485.223-.54.375-1.158.419-2.062.043-.907.054-1.196.054-3.504 0-2.307-.01-2.597-.055-3.503-.043-.905-.195-1.522-.418-2.063a4.15 4.15 0 00-1.037-1.505 4.443 4.443 0 00-1.594-.98c-.572-.21-1.226-.354-2.184-.395C11.75.013 11.444.003 9 .003z" fill="#fff"/><path d="M9 4.137c-2.552 0-4.62 1.953-4.62 4.363S6.448 12.864 9 12.864s4.62-1.954 4.62-4.364S11.552 4.137 9 4.137zm0 7.196c-1.656 0-2.999-1.268-2.999-2.833 0-1.564 1.343-2.832 2.999-2.832 1.656 0 3 1.268 3 2.832 0 1.565-1.344 2.833-3 2.833zm4.803-6.349c.596 0 1.08-.457 1.08-1.02s-.484-1.02-1.08-1.02c-.597 0-1.08.457-1.08 1.02s.483 1.02 1.08 1.02z" fill="#fff"/></svg>
